X: 11842
T: Elsie Marley
R: jig
M: 6/8
K: Amixolydian
|:cBc ~A3|A2a aed|cBc ~A3|B2g gdB|
cBc ~A3|aba aec|dbd cac|B2g gdB:|
|:c2d ~e3|ef^g aed|c2d ~e3|~B3 =gdB|
c2d ~e3|ef^g aec|dbd cac|B2=g gdB:|
|:A2a aec|aec aec|A2a aec|gag gdB|
A2a aec|aec aec|dbd cac|B2g gdB:|

